icon-svg/light-strip.svg

<?xml version="1.0" encoding="UTF-8"?>
<svg width="32px" height="32px" viewBox="0 0 32 32" version="1.1" fill="#44739e" xmlns="http://www.w3.org/2000/svg" xmlns:xlink="http://www.w3.org/1999/xlink">
            <path d="M8.4395,16.668 C8.9795,16.552 9.5115,16.895 9.6285,17.435 C9.7455,17.974 9.4025,18.506 8.8625,18.623 C8.3225,18.74 7.7905,18.397 7.6735,17.857 C7.5565,17.317 7.9005,16.785 8.4395,16.668 M13.3275,15.611 C13.8665,15.495 14.3985,15.838 14.5155,16.377 C14.6325,16.917 14.2895,17.449 13.7505,17.566 C13.2105,17.683 12.6775,17.34 12.5605,16.8 C12.4445,16.261 12.7875,15.729 13.3275,15.611 M18.2135,14.555 C18.7535,14.438 19.2865,14.781 19.4025,15.32 C19.5195,15.86 19.1765,16.393 18.6365,16.51 C18.0965,16.626 17.5645,16.283 17.4485,15.743 C17.3315,15.203 17.6735,14.671 18.2135,14.555 M23.1005,13.498 C23.6405,13.381 24.1725,13.724 24.2905,14.264 C24.4065,14.804 24.0635,15.336 23.5235,15.453 C22.9835,15.569 22.4515,15.227 22.3355,14.687 C22.2175,14.147 22.5615,13.614 23.1005,13.498 M10.6695,20.639 L25.4735,17.444 C26.5535,17.211 27.2405,16.147 27.0065,15.067 C26.4495,12.484 23.9035,10.842 21.3205,11.399 L6.5165,14.594 C5.4365,14.827 4.7505,15.891 4.9835,16.971 C5.5415,19.554 8.0865,21.196 10.6695,20.639 M25,26 C24.447,26 24,25.553 24,25 C24,24.447 24.447,24 25,24 C25.553,24 26,24.447 26,25 C26,25.553 25.553,26 25,26 M20,26 C19.447,26 19,25.553 19,25 C19,24.447 19.447,24 20,24 C20.553,24 21,24.447 21,25 C21,25.553 20.553,26 20,26 M15,26 C14.447,26 14,25.553 14,25 C14,24.447 14.447,24 15,24 C15.553,24 16,24.447 16,25 C16,25.553 15.553,26 15,26 M10,26 C9.447,26 9,25.553 9,25 C9,24.447 9.447,24 10,24 C10.553,24 11,24.447 11,25 C11,25.553 10.553,26 10,26 M27,22 L9,22 C5,22 4,19 4,18 L4,23 C4,25.762 6.238,28 9,28 L27,28 C27.553,28 28,27.553 28,27 L28,23 C28,22.447 27.553,22 27,22 M22,8 C21.447,8 21,7.553 21,7 C21,6.447 21.447,6 22,6 C22.553,6 23,6.447 23,7 C23,7.553 22.553,8 22,8 M17,8 C16.447,8 16,7.553 16,7 C16,6.447 16.447,6 17,6 C17.553,6 18,6.447 18,7 C18,7.553 17.553,8 17,8 M12,8 C11.447,8 11,7.553 11,7 C11,6.447 11.447,6 12,6 C12.553,6 13,6.447 13,7 C13,7.553 12.553,8 12,8 M7,8 C6.447,8 6,7.553 6,7 C6,6.447 6.447,6 7,6 C7.553,6 8,6.447 8,7 C8,7.553 7.553,8 7,8 M23,4 L5,4 C4.447,4 4,4.447 4,5 L4,9 C4,9.553 4.447,10 5,10 L23,10 C27,10 28,13 28,14 L28,9 C28,6.238 25.762,4 23,4"></path>
</svg>

<svg xmlns="http://www.w3.org/2000/svg" fill="#44739e" viewBox="0 0 24 24"><path d="M8.4395 16.668c.54-.116 1.072.227 1.189.767.117.539-.226 1.071-.766 1.188s-1.072-.226-1.189-.766.227-1.072.766-1.189m4.888-1.057c.539-.116 1.071.227 1.188.766.117.54-.226 1.072-.765 1.189-.54.117-1.073-.226-1.19-.766-.116-.539.227-1.071.767-1.189m4.886-1.056c.54-.117 1.073.226 1.189.765.117.54-.226 1.073-.766 1.19-.54.116-1.072-.227-1.188-.767-.117-.54.225-1.072.765-1.188m4.887-1.057c.54-.117 1.072.226 1.19.766.116.54-.227 1.072-.767 1.189-.54.116-1.072-.226-1.188-.766-.118-.54.226-1.073.765-1.189m-12.431 7.141 14.804-3.195c1.08-.233 1.767-1.297 1.533-2.377-.557-2.583-3.103-4.225-5.686-3.668l-14.804 3.195c-1.08.233-1.766 1.297-1.533 2.377.558 2.583 3.103 4.225 5.686 3.668M25 26c-.553 0-1-.447-1-1s.447-1 1-1 1 .447 1 1-.447 1-1 1m-5 0c-.553 0-1-.447-1-1s.447-1 1-1 1 .447 1 1-.447 1-1 1m-5 0c-.553 0-1-.447-1-1s.447-1 1-1 1 .447 1 1-.447 1-1 1m-5 0c-.553 0-1-.447-1-1s.447-1 1-1 1 .447 1 1-.447 1-1 1m17-4H9c-4 0-5-3-5-4v5c0 2.762 2.238 5 5 5h18c.553 0 1-.447 1-1v-4c0-.553-.447-1-1-1M22 8c-.553 0-1-.447-1-1s.447-1 1-1 1 .447 1 1-.447 1-1 1m-5 0c-.553 0-1-.447-1-1s.447-1 1-1 1 .447 1 1-.447 1-1 1m-5 0c-.553 0-1-.447-1-1s.447-1 1-1 1 .447 1 1-.447 1-1 1M7 8c-.553 0-1-.447-1-1s.447-1 1-1 1 .447 1 1-.447 1-1 1m16-4H5c-.553 0-1 .447-1 1v4c0 .553.447 1 1 1h18c4 0 5 3 5 4V9c0-2.762-2.238-5-5-5"/></svg>
